src/assets/icons/days,simple,thursday.svg

<svg width="48" height="48" viewBox="0 0 48 48" fill="none" xmlns="http://www.w3.org/2000/svg">
<rect opacity="0.2" x="5" y="5" width="38" height="38" rx="4" fill="black"/>
<path d="M5 13C5 9.22876 5 7.34315 6.17157 6.17157C7.34315 5 9.22876 5 13 5H35C38.7712 5 40.6569 5 41.8284 6.17157C43 7.34315 43 9.22876 43 13V15H5V13Z" fill="black"/>
<path d="M11.7903 23.9901H16.2434V36H19.2832V23.9901H23.7363V21.4545H11.7903V23.9901ZM28.6724 29.6932C28.6795 28.2869 29.5389 27.4631 30.7747 27.4631C32.0034 27.4631 32.7278 28.2514 32.7207 29.5938V36H35.7463V29.054C35.7534 26.4972 34.2477 24.9489 31.975 24.9489C30.3201 24.9489 29.2122 25.7301 28.715 27.0156H28.5872V21.4545H25.6468V36H28.6724V29.6932Z" fill="black"/>
</svg>

<svg xmlns="http://www.w3.org/2000/svg" width="48" height="48" fill="none" viewBox="0 0 48 48">
  <rect width="38" height="38" x="5" y="5" fill="#000" opacity=".2" rx="4"/>
  <path fill="#000" d="M5 13c0-3.771 0-5.657 1.172-6.828C7.343 5 9.229 5 13 5h22c3.771 0 5.657 0 6.828 1.172C43 7.343 43 9.229 43 13v2H5v-2zM11.79 23.99h4.453V36h3.04V23.99h4.453v-2.535H11.79v2.535zm16.882 5.703c.008-1.406.867-2.23 2.103-2.23 1.228 0 1.953.788 1.946 2.13V36h3.025v-6.946c.007-2.557-1.498-4.105-3.771-4.105-1.655 0-2.763.781-3.26 2.067h-.128v-5.561h-2.94V36h3.025v-6.307z"/>
</svg>
